X:89
T:Reels simple chords 14
M:3/4
L:1/8
K:A
af [e2A,2C2E2] A2 | c2 Bc [e2A,2C2E2] | A2 A2 af | [e2A,2C2E2] c2 c2 | Bc [f2B,2D2F2] B2 |
B2 cd [eA,CE]f | ed c2 BA | [c2A,2C2E2] e2 a2 | c2 [d2B,2D2F2] f2 |
B2 ed [c2A,2C2E2] | A2 A2 af | [e2A,2C2E2] A2 c2 | Bc [e2A,2C2E2] A2 |
A2 af [e2A,2C2E2] | c2 c2 Bc | [f2B,2D2F2] B2 B2 | cd [eA,CE]f ed |
c2 BA [c2A,2C2E2] | e2 a2 c2 | [d2B,2D2F2] f2 B2 | ed [c2A,2C2E2] A2 |
A2 g2 [a4A,4C4E4] | e2 fg | [a2A,2C2E2] ed c2 | BA [a2A,2C2E2] a2 |
ef ec [d2B,2D2F2] | B2 B2 e2 | [a4A,4C4E4] e2 | fg [aA,CE]e fd |
c2 BA [d2D,2F,2A,2] | f2 B2 ed | [c2A,2C2E2] A2 A2 | g2 [a4A,4C4E4] |
e2 fg [a2A,2C2E2] | ed c2 BA | [a2A,2C2E2] a2 ef | ec [d2B,2D2F2] B2 |
B2 e2 [a4A,4C4E4] | e2 fg | [aA,CE]e fd c2 | BA [d2D,2F,2A,2] f2 |
B2 ed [c2A,2C2E2] | A2 A2 |


